X:294
T:Danza de San Jun de Nueva
R:Danza
C:Tradicional
S:Msica Tradicional Asturiana, (C) Tello & Tito. Asturies, 2001.
S:http://pagina.de/MusTradAst <telloytito@asturies.org>
A:Asturies
O:Nueva (Llanes)
M:2/4
L:1/8
Q:1/8=250
K:F
cc|cc dc|BA cc|cc dc|BA BB|BB cA|G2 F2-|F4|
z2 FB|BG AF|A2 G2-|G4|z2 FB|
BG AF|FE GB|BA FG|G2 F2-|F4|
